assets/Shinto shrine/Flat/shinto_shrine_flat.svg

<svg width="32" height="32" viewBox="0 0 32 32" fill="none" xmlns="http://www.w3.org/2000/svg">
<path d="M7.00317 6.99561H10.0032V9.99561H7.00317V6.99561ZM7.00317 11.9956H10.0032V27.9956H7.00317V11.9956ZM25.0032 11.9956H22.0032V27.9956H25.0032V11.9956ZM22.0032 6.99561H25.0032V9.99561H22.0032V6.99561Z" fill="#FF6723"/>
<path d="M29.9932 2.39557V2.41557C30.1032 3.29557 29.5132 4.09557 28.6632 4.20557L28.6632 4.20558C28.4432 4.22557 28.2232 4.24557 28.0032 4.27557V4.99557H4.00318V4.27557L4.00316 4.27557C3.78317 4.25557 3.56317 4.23557 3.34318 4.20557C2.49318 4.09557 1.90319 3.29557 2.01319 2.41557V2.39557C2.04319 2.14557 2.26318 1.97557 2.50318 2.00557C11.1932 3.22557 20.8132 3.22557 29.5032 2.00557C29.7432 1.96557 29.9632 2.14557 29.9932 2.39557ZM18.0032 6.99561H14.0032V9.99561H18.0032V6.99561ZM7.00317 11.9956H10.0032V14.9956H7.00317V11.9956ZM6.00317 29.9956H11.0032V28.8356C11.0032 28.3756 10.6232 27.9956 10.1632 27.9956H6.84317C6.38317 27.9956 6.00317 28.3756 6.00317 28.8356V29.9956ZM26.0832 29.9956H21.0832V28.8356C21.0832 28.3756 21.4632 27.9956 21.9232 27.9956H25.2432C25.7032 27.9956 26.0832 28.3756 26.0832 28.8356V29.9956ZM22.0032 11.9956H25.0032V14.9956H22.0032V11.9956Z" fill="#212121"/>
<path d="M5.58318 6.99561H26.4332C27.3032 6.99561 28.0032 6.28561 28.0032 5.41561V4.99561H4.00317V5.41561C4.00317 6.28561 4.71318 6.99561 5.58318 6.99561ZM3.00317 11.9956H29.0032C29.5632 11.9956 30.0032 11.5456 30.0032 10.9956C30.0032 10.4456 29.5532 9.99561 29.0032 9.99561H3.00317C2.45317 9.99561 2.00317 10.4456 2.00317 10.9956C2.00317 11.5456 2.45317 11.9956 3.00317 11.9956Z" fill="#F8312F"/>
</svg>

<svg xmlns="http://www.w3.org/2000/svg" width="32" height="32" fill="none"><path fill="#FF6723" d="M7.003 6.996h3v3h-3v-3Zm0 5h3v16h-3v-16Zm18 0h-3v16h3v-16Zm-3-5h3v3h-3v-3Z"/><path fill="#212121" d="M29.993 2.396v.02c.11.88-.48 1.68-1.33 1.79-.22.02-.44.04-.66.07v.72h-24v-.72c-.22-.02-.44-.04-.66-.07-.85-.11-1.44-.91-1.33-1.79v-.02a.44.44 0 0 1 .49-.39c8.69 1.22 18.31 1.22 27 0 .24-.04.46.14.49.39Zm-11.99 4.6h-4v3h4v-3Zm-11 5h3v3h-3v-3Zm-1 18h5v-1.16c0-.46-.38-.84-.84-.84h-3.32c-.46 0-.84.38-.84.84v1.16Zm20.08 0h-5v-1.16c0-.46.38-.84.84-.84h3.32c.46 0 .84.38.84.84v1.16Zm-4.08-18h3v3h-3v-3Z"/><path fill="#F8312F" d="M5.583 6.996h20.85c.87 0 1.57-.71 1.57-1.58v-.42h-24v.42c0 .87.71 1.58 1.58 1.58Zm-2.58 5h26c.56 0 1-.45 1-1s-.45-1-1-1h-26c-.55 0-1 .45-1 1s.45 1 1 1Z"/></svg>
